web/packages/design/src/ResourceIcon/assets/mattermost-light.svg

<svg width="72" height="72" viewBox="0 0 72 72" fill="none" xmlns="http://www.w3.org/2000/svg">
<g clip-path="url(#clip0_8350_41949)">
<path fill-rule="evenodd" clip-rule="evenodd" d="M56.9928 7.24321L57.3831 14.7902C63.4988 21.5565 65.9277 31.142 62.8916 40.1637C58.3374 53.6095 43.3301 60.6793 29.3205 55.9516C15.3109 51.2239 7.72049 36.4769 12.2747 23.0312C15.3542 13.9661 23.1181 7.80706 32.1398 6.20224L36.9976 0.433566C21.7735 0.0432046 7.46025 9.45525 2.29881 24.636C-3.99035 43.2866 5.98555 63.4986 24.6362 69.7878C43.2868 76.0769 63.4988 66.101 69.788 47.4504C74.906 32.3565 69.2675 16.1348 56.9928 7.24321V7.24321Z" fill="black"/>
<path fill-rule="evenodd" clip-rule="evenodd" d="M48.2751 29.5375L48.0149 18.9544L47.798 12.8821L47.6679 7.59055C47.6679 7.59055 47.7113 5.03151 47.6245 4.46766C47.6245 4.33754 47.5812 4.25079 47.5378 4.16404V4.0773C47.451 3.9038 47.2775 3.77368 47.104 3.68693C46.8872 3.60019 46.6703 3.64356 46.4968 3.73031C46.4968 3.73031 46.4534 3.73031 46.4534 3.77368C46.3667 3.81705 46.2799 3.86043 46.1932 3.94717C45.7595 4.38091 44.2414 6.41946 44.2414 6.41946L40.945 10.5399L37.0848 15.2677L30.4486 23.5086C30.4486 23.5086 27.4125 27.2821 28.0631 31.9665C28.7137 36.6508 32.2269 38.9062 34.9161 39.8171C37.6052 40.7279 41.7691 41.0315 45.1089 37.7351C48.3619 34.3954 48.2751 29.5375 48.2751 29.5375V29.5375Z" fill="black"/>
</g>
<defs>
<clipPath id="clip0_8350_41949">
<rect width="72" height="72" fill="white"/>
</clipPath>
</defs>
</svg>

<svg xmlns="http://www.w3.org/2000/svg" width="72" height="72" fill="none" viewBox="0 0 72 72"><g fill="#000" fill-rule="evenodd" clip-path="url(#a)" clip-rule="evenodd"><path d="m56.993 7.243.39 7.547c6.116 6.767 8.545 16.352 5.509 25.374C58.337 53.609 43.33 60.679 29.32 55.952s-21.6-19.475-17.045-32.92c3.08-9.066 10.843-15.225 19.865-16.83L36.998.434C21.774.044 7.46 9.455 2.298 24.636c-6.288 18.65 3.688 38.863 22.338 45.152S63.5 66.1 69.788 47.45c5.118-15.094-.52-31.315-12.795-40.207"/><path d="m48.275 29.538-.26-10.584-.217-6.072-.13-5.291s.043-2.56-.044-3.123a.6.6 0 0 0-.086-.304v-.087c-.087-.173-.26-.303-.434-.39a.73.73 0 0 0-.607.043s-.044 0-.044.044c-.086.043-.173.086-.26.173-.433.434-1.952 2.472-1.952 2.472l-3.296 4.12-3.86 4.729-6.636 8.24s-3.036 3.774-2.386 8.459 4.164 6.94 6.853 7.85 6.853 1.215 10.193-2.082c3.253-3.34 3.166-8.197 3.166-8.197"/></g><defs><clipPath id="a"><path fill="#fff" d="M0 0h72v72H0z"/></clipPath></defs></svg>
